X:774
T:Jenny Picking Cockles
R:reel
H:See also #3, #427, #528.
H:Related to "Jenny's Welcome to Charlie", #47.
H:The second part is sometimes played with =f instead of ^f
D:Martin O'Connor: Connaughtman's Rambles.
D:Noel Hill & Tony McMahon: \'I gCnoc na Gra\'i
Z:id:hn-reel-774
M:C|
K:Dmix
|:Addc AGEF|GEcE dEcE|Addc AGEF|GEcE EDD2|
Addc AGEF|GEcE dEcd|eddc AGEF|GEcE EDD2:|
|:~f3d efed|^cA~A2 ^cA~A2|~f3d ed^cd|eaag edde|
~f3d efed|^cAAG AB=cd|eddc AGEF|GEcE EDD2:|
P:variations
|:Addc AGEF|GE~E2 dEcE|Addc AGEF|GEcE EDD2|
Addc AGEF|GE~E2 decd|e2dc AGEF|GEcE EDD2:|
|:fd~d2 efed|^cA~A2 ^cA (3Bcd|fd~d2 ed (3B^cd|e2ag edde|
~f3d efed|^cAAB =cBcd|e2dc AGEF|GEcE EDD2:|

